X: 12882
T: Fesker Ma
R: jig
M: 6/8
K: Emajor
|:bee fee|gee cee|bee fee|ceB f3|
bee fee|gee cee|Bee fee|gfB e3:|
|:Bee fee|agf eBe|Bee fee|Bce f3|
Bee fee|agf eBe|Bee fee|Bcd e3:|

